icons-rebrand/svg/active-speaker-alert-light.svg

<svg width="32" height="32" viewBox="0 0 32 32" fill="none" xmlns="http://www.w3.org/2000/svg">
<path d="M9 13.9419C8.86739 13.9419 8.74021 13.9946 8.64645 14.0883C8.55268 14.1821 8.5 14.3093 8.5 14.4419V16.1289C8.5 16.2615 8.55268 16.3887 8.64645 16.4824C8.74021 16.5762 8.86739 16.6289 9 16.6289C9.13261 16.6289 9.25979 16.5762 9.35355 16.4824C9.44732 16.3887 9.5 16.2615 9.5 16.1289V14.4419C9.5 14.3093 9.44732 14.1821 9.35355 14.0883C9.25979 13.9946 9.13261 13.9419 9 13.9419ZM9 18.7499C9.13261 18.7499 9.25979 18.6972 9.35355 18.6034C9.44732 18.5097 9.5 18.3825 9.5 18.2499C9.5 18.1173 9.44732 17.9901 9.35355 17.8963C9.25979 17.8026 9.13261 17.7499 9 17.7499C8.86739 17.7499 8.74021 17.8026 8.64645 17.8963C8.55268 17.9901 8.5 18.1173 8.5 18.2499C8.5 18.3825 8.55268 18.5097 8.64645 18.6034C8.74021 18.6972 8.86739 18.7499 9 18.7499Z" fill="#0F0F0F"/>
<path d="M10.3149 10.2521L10.3089 10.2421C10.1765 10.0147 9.98666 9.82623 9.75836 9.69551C9.53006 9.56478 9.27138 9.49645 9.00831 9.49736C8.74524 9.49827 8.48704 9.5684 8.25965 9.7007C8.03227 9.833 7.84371 10.0228 7.71291 10.2511L2.70591 19.2441C2.57289 19.472 2.50237 19.731 2.50147 19.995C2.50058 20.2589 2.56934 20.5184 2.70081 20.7473C2.83228 20.9761 3.0218 21.1662 3.25025 21.2984C3.4787 21.4306 3.73798 21.5001 4.00191 21.5001H13.9999C14.2629 21.5001 14.5214 21.431 14.7492 21.2996C14.9771 21.1683 15.1665 20.9793 15.2983 20.7517C15.4301 20.524 15.4997 20.2658 15.5001 20.0027C15.5006 19.7397 15.4319 19.4812 15.3009 19.2531L10.3149 10.2511V10.2521ZM14.4329 20.2491C14.3897 20.3257 14.3268 20.3893 14.2506 20.4333C14.1744 20.4773 14.0879 20.5 13.9999 20.4991H4.00191C3.91379 20.5002 3.827 20.4776 3.75064 20.4336C3.67427 20.3896 3.61116 20.3259 3.56791 20.2491C3.52274 20.1715 3.49944 20.083 3.5005 19.9932C3.50156 19.9034 3.52692 19.8156 3.57391 19.7391L8.58191 10.7461C8.62583 10.6713 8.68847 10.6091 8.76366 10.5659C8.83885 10.5226 8.92401 10.4996 9.01077 10.4992C9.09753 10.4988 9.1829 10.521 9.25849 10.5636C9.33408 10.6061 9.39729 10.6677 9.44191 10.7421L14.4319 19.7481C14.4767 19.8237 14.5005 19.91 14.5007 19.9979C14.5008 20.0859 14.4774 20.1722 14.4329 20.2481V20.2491ZM23.9999 28.5001C23.9008 28.5002 23.8038 28.4709 23.7214 28.4159C23.6389 28.3608 23.5747 28.2825 23.5368 28.1909C23.499 28.0992 23.4893 27.9984 23.5089 27.9012C23.5285 27.8041 23.5765 27.7149 23.6469 27.6451C25.1591 26.1469 26.3655 24.3689 27.1989 22.4101C28.0573 20.382 28.4996 18.2023 28.4996 16.0001C28.4996 13.7979 28.0573 11.6181 27.1989 9.59007C26.3652 7.63115 25.1589 5.85287 23.6469 4.35407C23.5555 4.26003 23.5047 4.13386 23.5055 4.00274C23.5063 3.87162 23.5585 3.74604 23.6509 3.65306C23.7434 3.56008 23.8687 3.50714 23.9998 3.50565C24.1309 3.50415 24.2574 3.55422 24.3519 3.64507C25.9843 5.26198 27.2801 7.18635 28.1644 9.30697C29.0487 11.4276 29.504 13.7024 29.504 16.0001C29.504 18.2977 29.0487 20.5725 28.1644 22.6932C27.2801 24.8138 25.9843 26.7382 24.3519 28.3551C24.2583 28.4479 24.1318 28.5 23.9999 28.5001Z" fill="#0F0F0F"/>
<path d="M20.4999 25.5C20.4022 25.5 20.3067 25.4715 20.2251 25.4178C20.1435 25.3642 20.0793 25.2879 20.0406 25.1982C20.0019 25.1086 19.9903 25.0095 20.0072 24.9133C20.0242 24.8172 20.0689 24.7281 20.1359 24.657C20.4339 24.34 20.7139 24.007 20.9759 23.661C21.6427 22.7744 22.1875 21.8024 22.5959 20.771C23.8004 17.7051 23.8004 14.2969 22.5959 11.231C22.185 10.1944 21.6367 9.21768 20.9659 8.327C20.707 7.98404 20.43 7.65524 20.1359 7.342C20.0887 7.29462 20.0515 7.23828 20.0265 7.17628C20.0015 7.11429 19.9892 7.04791 19.9903 6.98108C19.9914 6.91424 20.0059 6.84831 20.0329 6.78716C20.0599 6.72602 20.0989 6.67092 20.1476 6.62511C20.1963 6.57931 20.2537 6.54373 20.3163 6.52048C20.379 6.49723 20.4457 6.48678 20.5125 6.48975C20.5792 6.49273 20.6448 6.50906 20.7051 6.53778C20.7655 6.56651 20.8195 6.60705 20.8639 6.657C21.1819 6.997 21.4829 7.353 21.7639 7.724C22.4891 8.68603 23.0817 9.74113 23.5259 10.861C24.824 14.164 24.824 17.836 23.5259 21.139C23.0837 22.2534 22.4944 23.3037 21.7739 24.262C21.4909 24.639 21.1859 25 20.8629 25.342C20.8164 25.3918 20.7602 25.4315 20.6978 25.4587C20.6353 25.4859 20.568 25.4999 20.4999 25.5Z" fill="#0F0F0F"/>
</svg>

<svg width="32" height="32" viewBox="0 0 32 32" fill="none" xmlns="http://www.w3.org/2000/svg"><path d="M9 13.942a.5.5 0 0 0-.5.5v1.687a.5.5 0 0 0 1 0v-1.687a.5.5 0 0 0-.5-.5zM9 18.75a.5.5 0 1 0 0-1 .5.5 0 0 0 0 1z" fill="#0F0F0F"/><path d="M10.315 10.252l-.006-.01a1.499 1.499 0 0 0-2.596.009l-5.007 8.993A1.5 1.5 0 0 0 4.002 21.5H14a1.5 1.5 0 0 0 1.301-2.247l-4.986-9.002zm4.118 9.997a.491.491 0 0 1-.433.25H4.002a.491.491 0 0 1-.434-.25.497.497 0 0 1 .006-.51l5.008-8.993a.5.5 0 0 1 .86-.004l4.99 9.006a.492.492 0 0 1 .001.5zM24 28.5a.5.5 0 0 1-.353-.855 16.417 16.417 0 0 0 3.552-5.235 16.445 16.445 0 0 0 0-12.82 16.435 16.435 0 0 0-3.552-5.236.5.5 0 0 1 .705-.709 17.39 17.39 0 0 1 0 24.71.5.5 0 0 1-.352.145z" fill="#0F0F0F"/><path d="M20.5 25.5a.5.5 0 0 1-.364-.843c.298-.317.578-.65.84-.996a12.405 12.405 0 0 0 1.62-2.89 13.045 13.045 0 0 0 0-9.54 12.456 12.456 0 0 0-1.63-2.904 11.999 11.999 0 0 0-.83-.985.5.5 0 1 1 .728-.685c.318.34.619.696.9 1.067a13.449 13.449 0 0 1 1.762 3.137 14.05 14.05 0 0 1 0 10.278 13.451 13.451 0 0 1-1.752 3.123c-.283.377-.588.738-.911 1.08a.497.497 0 0 1-.363.158z" fill="#0F0F0F"/></svg>
